!!!!SEGMENT: pl-gd--ee-1638--005-002_marenzio-luca--il-primo-libro-de-madrigali-spirituali-a-cinque-voci-le-dubie-spemi.krn
!!!cenid: 15xx:955
!!!COM: Marenzio, Luca
!!!COM-rismID: pe30003955
!!!CDT: ~1553-1599/08/22
!!!CNT: Italian
!!!GTL: Il Primo libro de madrigali spirituali a cinque voci
!!!OTL: Le dubie spemi
!!!OMV: 002
!!!PDT: 1588
!!!AGN:
!!!SMS-siglum: PL-GD
!!!SMS-shelfmark: Ee 1638
!!!SMS-shelfwork: 005-002 G
!!!SMS-variant:
!!!SMS-altvar:
!!!NIFC-rismSourceID: 990039269
!!!NIFC-islandoraID: pl-gd:57883
!!!URL-pdf-islandora: https://repozytorium.nifc.pl/islandora/object/pl-gd%3A57883/datastream/PDF/view
!!!URL-scan: https://polish.musicsources.pl/pl/lokalizacje/galeria/klocki-introligatorskie/655 @EN{Scan on Polish Music Herritage in Open Access Website} @PL{Skany w portalu Dziedzictwo Muzyki Polskiej w otwartym dostępie}
!!!ONB-nifc: UWAGA: zbiór na stronach: Canto: s. 666-677, Alto: s. 514-525, Tenore: s. 362-373, Bassus: s. 210-221, Quinto: s. 58-69. Uwaga: utwory podzielone wg tytułów w spisach treści dostępnych na końcu każdej księgi głosowej.
!!!AIN: 1 alto 1 bass 1 soprn 1 tenor 1 vox
!!!key:
**kern	**text	**kern	**text	**kern	**text	**kern	**text	**kern	**text
*part5	*part5	*part4	*part4	*part3	*part3	*part2	*part2	*part1	*part1
*staff5	*staff5	*staff4	*staff4	*staff3	*staff3	*staff2	*staff2	*staff1	*staff1
*I"QVINTO	*	*I"BASSO	*	*I"TENORE	*	*I"ALTO	*	*I"CANTO	*
*I'V	*	*I'B	*	*I'T	*	*I'A	*	*I'S	*
*ICvox	*	*ICvox	*	*ICvox	*	*ICvox	*	*ICvox	*
*Ivox	*	*Ibass	*	*Itenor	*	*Ialto	*	*Isoprn	*
*clefC4	*	*clefF4	*	*clefC4	*	*clefC3	*	*clefC1	*
*k[]	*	*k[]	*	*k[]	*	*k[]	*	*k[]	*
*C:	*	*C:	*	*C:	*	*C:	*	*C:	*
*M2/1	*	*M2/1	*	*M2/1	*	*M2/1	*	*M2/1	*
*met(C|)	*	*met(C|)	*	*met(C|)	*	*met(C|)	*	*met(C|)	*
=1-	=1-	=1-	=1-	=1-	=1-	=1-	=1-	=1-	=1-
!LO:TX:a:t=Prima Parte	!	!LO:TX:a:t=Prima Parte	!	!LO:TX:a:t=Prima Parte	!	!LO:TX:a:t=Prima Parte	!	!LO:TX:a:t=Prima Parte	!
1r	.	00r	.	00r	.	1r	.	0e	LE
0e	LE	.	.	.	.	0e	LE	.	.
=2-	=2-	=2-	=2-	=2-	=2-	=2-	=2-	=2-	=2-
.	.	.	.	.	.	.	.	1.g	dub-
1.c	dub-	.	.	.	.	1.e	dub-	.	.
.	.	.	.	.	.	.	.	2a\	-bie
=3-	=3-	=3-	=3-	=3-	=3-	=3-	=3-	=3-	=3-
.	.	00r	.	00r	.	.	.	1g	ſpe-
2B\	-bie	.	.	.	.	2d\	-bie	.	.
2c\	ſpe-	.	.	.	.	1e	ſpe-	1.g	-mi il
2G/	-mi il	.	.	.	.	.	.	.	.
=4-	=4-	=4-	=4-	=4-	=4-	=4-	=4-	=4-	=4-
1A	pian-	.	.	.	.	2c#X/	-mi il	.	.
.	.	.	.	.	.	1d	pian-	1f	piã(n)-
1A	-t`e`l	.	.	.	.	.	.	.	.
.	.	.	.	.	.	2c#X/	-to	2e/	-to e`l
=5-	=5-	=5-	=5-	=5-	=5-	=5-	=5-	=5-	=5-
2B\	van	1r	.	0E	LE	1r	.	2g#X/	van
2c\	do-	.	.	.	.	.	.	2a\	do-
*	*	*	*	*	*	*	*ij	*	*
1B	-lo-	0E	E	.	.	0g	LE	1b	-lo-
=6-	=6-	=6-	=6-	=6-	=6-	=6-	=6-	=6-	=6-
0E	-re	.	.	1.G	dub-	.	.	1b	-re
.	.	1.C	dub-	.	.	1.e	dub-	2r	.
.	.	.	.	2A/	-bie	.	.	2e/	Le
=7-	=7-	=7-	=7-	=7-	=7-	=7-	=7-	=7-	=7-
2r	.	.	.	1G	ſpe-	.	.	1.gny	dub-
*	*ij	*	*	*	*	*	*	*	*
1G	LE	2BB/	-bie	.	.	2d\	-bie	.	.
.	.	1.C	ſpe-	1E	-mi	1.e	ſpe-	.	.
1c\	dub-	.	.	.	.	.	.	2a\	-bie
=8-	=8-	=8-	=8-	=8-	=8-	=8-	=8-	=8-	=8-
!	!	!	!	!	!	!	!	!LO:SIC:v:t=custos g	!
.	.	.	.	2r	.	.	.	2g/	ſpe-
!LO:SIC:v:t=custos A	!	!	!	!	!	!	!	!LO:LB:g=original	!
2B\	-bie	2GG/	-mi il	1G	il	2d\	-mi il	2g/	-mi il
!LO:LB:g=original	!	!	!	!	!	!	!	!	!
1.A	ſpe-	1D	piã(n)-	.	.	1d	pian-	1a	pian-
.	.	.	.	1F/	piã(n)-	.	.	.	.
=9-	=9-	=9-	=9-	=9-	=9-	=9-	=9-	=9-	=9-
!	!	!	!	!	!	!LO:SIC:v:t=custos B	!	!	!
.	.	1AA	-t`e`l	.	.	1cny	-to	1a	-to
*	*	*	*	*	*	*	*Xij	*	*
1e	-mi il	.	.	2E/	-to e`l	.	.	.	.
!	!	!	!	!	!	!LO:LB:g=original	!	!	!
.	.	2E\	vã(n)	2G#X/	van	2B/	e`l van	1r	.
1d\	pian-	2F\	do-	2A/	do-	2A/	do-	.	.
=10-	=10-	=10-	=10-	=10-	=10-	=10-	=10-	=10-	=10-
.	.	0E	-lo-	1.B	-lo-	2G#X/	-lo-	2r	.
2c\	-t`e`l	.	.	.	.	2G#/	-re	2e/	e`l
2B\	van	.	.	.	.	2r	.	2g#X/	van
1A\	do-	.	.	2c#X\	.	2e\	e`l	2a\	do-
=11-	=11-	=11-	=11-	=11-	=11-	=11-	=11-	=11-	=11-
.	.	0D	-re	0d	-re	2f#X\	van	1b	-lo-
1G	-lo-	.	.	.	.	2g\	do-	.	.
.	.	.	.	.	.	2a\	-lo-	1a	-re
2F#X/	-re	.	.	.	.	2d\	-re	.	.
*	*Xij	*	*	*	*	*	*	*	*
=12-	=12-	=12-	=12-	=12-	=12-	=12-	=12-	=12-	=12-
2r	.	00r	.	2r	.	2r	.	2r	.
1G	I	.	.	1B	I	1d	I	1gny	I
!	!	!	!	!LO:SIC:v:t=custos c	!	!	!	!	!
2D/	pen-	.	.	2d\	pen-	2fny\	pen-	2a\	pen-
!	!	!	!	!LO:LB:g=original	!	!	!	!	!
=13-	=13-	=13-	=13-	=13-	=13-	=13-	=13-	=13-	=13-
1A	-ſier	.	.	1c#X	-ſier	1e	-ſier	1a	-ſier
1G	fol-	.	.	1d	fol-	1g	fol-	1b	fol-
=14-	=14-	=14-	=14-	=14-	=14-	=14-	=14-	=14-	=14-
2G/	-li e	00r	.	2d\	-li e	2g\	-li e	2b\	-li e
1c	le	.	.	1e	le	1g	le de-	1cc	le de-
2Fny/	de-	.	.	2cny\	de-	2f\	-li-	2a\	-li-
=15-	=15-	=15-	=15-	=15-	=15-	=15-	=15-	=15-	=15-
2F/	-lir-	.	.	4d\	-li-	2f\	-re	2a\	-re
.	.	.	.	4c\	-re	.	.	.	.
2A/	-`im-	.	.	2.c\	im-	2c/	im-	2e/	im-
!	!	!	!	!	!	!LO:SIC:v:t=custos e	!	!LO:SIC:v:t=custos g	!
1G	-pre-	.	.	.	.	1d	-pre-	1g	-pre-
.	.	.	.	8B\	-re	.	.	.	.
.	.	.	.	8A\	.	.	.	.	.
.	.	.	.	2B\	.	.	.	.	.
!	!	!	!	!	!	!LO:LB:g=original	!	!LO:LB:g=original	!
=16-	=16-	=16-	=16-	=16-	=16-	=16-	=16-	=16-	=16-
2C/	-ſe	0r	.	2c\	-ſe	1e	-ſe	0g	-ſe
2c\	E	.	.	2e\	E	.	.	.	.
2B\	le	.	.	2d\	le	2r	.	.	.
2c\	que-	.	.	2e\	que-	2e\	E	.	.
=17-	=17-	=17-	=17-	=17-	=17-	=17-	=17-	=17-	=17-
!LO:SIC:v:t=custos G	!	!	!	!	!	!	!	!	!
1A	-re-	1r	.	1c	-re-	2f\	le	1r	.
.	.	.	.	.	.	2e\	que-	.	.
!LO:LB:g=original	!	!	!	!	!	!	!	!	!
1G	-le	2r	.	0d	-le	2g\	-re-	2r	.
!	!	!LO:SIC:v:t=custos F#	!	!	!	!	!	!	!
.	.	2G\	E	.	.	2d\	-le	2b\	E
!	!	!LO:LB:g=original	!	!	!	!	!	!	!
=18-	=18-	=18-	=18-	=18-	=18-	=18-	=18-	=18-	=18-
2r	.	2F#X\	le	.	.	2r	.	2a\	le
2B\	E	2G\	que-	.	.	2d\	in-	2b\	que-
2c\	le	1E	-re-	1r	.	4e\	-dar-	1g	-re-
.	.	.	.	.	.	4f\	-no	.	.
2B\	que-	.	.	.	.	4g\	al	.	.
.	.	.	.	.	.	4e\	ven-	.	.
=19-	=19-	=19-	=19-	=19-	=19-	=19-	=19-	=19-	=19-
1d	-re-	1D	-le	2r	.	4f\	-to	2a\	-le
.	.	.	.	.	.	4g\	ſpe-	.	.
*	*	*	*	*	*	*	*	*	*ij
.	.	.	.	2d\	E	1a	.	2f/	E
1A	-le	2r	.	2c#X\	le	.	.	2e/	le
.	.	2D/	in-	2d\	que-	2a\	-ſe	2f#X/	que-
=20-	=20-	=20-	=20-	=20-	=20-	=20-	=20-	=20-	=20-
1r	.	4E\	-dar-	1B	-re-	2r	.	2g/	-re-
.	.	4Fny\	-no al	.	.	.	.	.	.
.	.	4G\	ven-	.	.	2e\	E	2g/	-le
.	.	4E\	-to	.	.	.	.	.	.
!	!	!	!	!LO:SIC:v:t=custos e	!	!	!	!	!
*	*	*	*	*	*	*	*	*	*Xij
2r	.	1F	ſpe-	1A	-le	2c/	le	4a\	indar-
.	.	.	.	.	.	.	.	4b\	-no al
2c\	E	.	.	.	.	2f\	que-	4cc\	uen-
.	.	.	.	.	.	.	.	4a\	-to
!	!	!	!	!LO:LB:g=original	!	!	!	!	!
=21-	=21-	=21-	=21-	=21-	=21-	=21-	=21-	=21-	=21-
2B\	le	2G\	-ſe	0r	.	2d\	-re-	2g/	ſpe-
!	!	!	!	!	!	!LO:SIC:v:t=custos f	!	!	!
2c\	que-	2C/	in-	.	.	2e\	-le in-	2g/	-ſe
!	!	!	!	!	!	!LO:LB:g=original	!	!	!
1.A	-re-	4D/	-dar-	.	.	4f\	-dar-	1r	.
.	.	4E\	-n`al	.	.	4g\	-no al	.	.
.	.	4F\	ven-	.	.	4a\	ven-	.	.
.	.	4D/	-to	.	.	4f\	-to	.	.
=22-	=22-	=22-	=22-	=22-	=22-	=22-	=22-	=22-	=22-
.	.	1E	ſpe-	2r	.	1e	ſpe-	2r	.
!	!	!	!	!	!	!	!	!LO:SIC:v:t=custos cc	!
2G#X/	-le in-	.	.	2e\	in-	.	.	2b\	in-
!	!	!	!	!	!	!	!	!LO:LB:g=original	!
4A/	-dar-	1AA	-ſe	4cny\	-dar-	1e	-ſe	4cc\	-dar-
4B\	-no al	.	.	4d\	-no al	.	.	4b\	-no al
4c\	ven-	.	.	4e\	ven-	.	.	4a\	ven-
4A/	-to	.	.	4c\	-to	.	.	4cc\	-to
=23-	=23-	=23-	=23-	=23-	=23-	=23-	=23-	=23-	=23-
2Gny/	ſpe-	2r	.	2d\	ſpe-	2r	.	2b\	ſpe-
2G/	-ſe	2.GG/	M`hã(n)-	2B\	-ſe	2.d\	M`hã(n)-	2b\	-ſe
2.B\	M`hã(n)-	.	.	2r	.	.	.	2.g/	M`hã(n)-
!	!	!LO:SIC:v:t=custos GG	!	!	!	!	!	!	!
.	.	4GG/	-no à	.	.	4d\	-n`a	.	.
!	!	!LO:LB:g=original	!	!	!	!	!	!	!
.	.	1GG/	me	2.Gny/	M`hã(n)-	1d\	me	.	.
!LO:SIC:v:t=custos B	!	!	!	!	!	!	!	!	!
4B\	-n`a	.	.	.	.	.	.	4g/	-no a
!LO:LB:g=original	!	!	!	!	!	!	!	!	!
=24-	=24-	=24-	=24-	=24-	=24-	=24-	=24-	=24-	=24-
2B\	me	.	.	.	.	.	.	1g	me
.	.	.	.	4G/	-n`a	.	.	.	.
1c	tol-	1C	tol-	2G/	me	1e	tol-	.	.
.	.	.	.	2c\	tol-	.	.	2g/	tol-
2B\	-to e	2E\	-to e	2G/	-to	1g\	-to e	2e/	-to e
=25-	=25-	=25-	=25-	=25-	=25-	=25-	=25-	=25-	=25-
1.d	poſ-	1D	poſ-	1A	poſ-	.	.	1a	poſ-
.	.	.	.	.	.	2f\	poſ-	.	.
.	.	1G	-to in	1B-yX	-to	2d\	-to in	1g	-to in
2G/	-to in	.	.	.	.	1e\	lun-	.	.
=26-	=26-	=26-	=26-	=26-	=26-	=26-	=26-	=26-	=26-
2A/	lun-	0F	lun-	1r	.	.	.	2cc\	lun-
2B\	-g`er-	.	.	.	.	2d\	-go er-	2b\	-go er-
2c\	-ro	.	.	1A	in	2c/	-ro-	1a	-ro-
2d\	.	.	.	.	.	4B/	.	.	.
.	.	.	.	.	.	4A/	.	.	.
=27-	=27-	=27-	=27-	=27-	=27-	=27-	=27-	=27-	=27-
2G/	re	1E	-g`er-	2Bny\	lun-	1e	.	1g	-re
1g	er-	.	.	2c\	-go er-	.	.	.	.
!	!	!	!	!	!	!LO:SIC:v:t=custos c	!	!	!
.	.	2.D/	-ro-	1.d	-ro-	1A	-re	2r	.
2f#X\	-ro-	.	.	.	.	.	.	1dd\	in
.	.	4C/	.	.	.	.	.	.	.
!	!	!	!	!	!	!LO:LB:g=original	!	!	!
=28-	=28-	=28-	=28-	=28-	=28-	=28-	=28-	=28-	=28-
0g	-re	2BB/	.	.	.	2r	.	.	.
.	.	2C/	.	2e\	-re	2c/	in	1cc	lũ(n)-
.	.	1GG	-re	2r	.	2d\	lũg`-	.	.
!	!	!	!	!	!	!	!	!LO:SIC:v:t=custos a	!
.	.	.	.	2G/	in	2e\	-er-	2b\	-go er-
!	!	!	!	!	!	!	!	!LO:LB:g=original	!
=29-	=29-	=29-	=29-	=29-	=29-	=29-	=29-	=29-	=29-
0r	.	0r	.	2A/	lũ(n)-	2f#X\	-ro-	0a	-ro-
!	!	!	!	!LO:SIC:v:t=custos c	!	!	!	!	!
.	.	.	.	2B\	-g`er-	2.g\	.	.	.
!	!	!	!	!LO:LB:g=original	!	!	!	!	!
.	.	.	.	2c\	-ro-	.	.	.	.
.	.	.	.	.	.	8f#X\	.	.	.
.	.	.	.	.	.	8e\	.	.	.
.	.	.	.	2d\	.	2f#X\	.	.	.
=30-	=30-	=30-	=30-	=30-	=30-	=30-	=30-	=30-	=30-
2r	.	1r	.	0G	-re	1g	-re	2b\	-re
1G	Ma	.	.	.	.	.	.	2g/	Ma
.	.	1C	Ma	.	.	2r	.	2e/	tu
2E/	tu	.	.	.	.	2e\	Ma	2c/	del
=31-	=31-	=31-	=31-	=31-	=31-	=31-	=31-	=31-	=31-
2E/	del	2AA/	tu	2r	.	2c/	tu	0cc	cie-
4F/	cie-	2FF/	del	2c\	Ma	2A/	del	.	.
4G/	.	.	.	.	.	.	.	.	.
4A/	.	2.F\	cie-	2A/	tu	1.a	cie-	.	.
4B\	.	.	.	.	.	.	.	.	.
2.c\	.	.	.	2F/	del	.	.	.	.
.	.	4E\	.	.	.	.	.	.	.
=32-	=32-	=32-	=32-	=32-	=32-	=32-	=32-	=32-	=32-
.	.	1D	.	1.f	cie-	.	.	1dd	-lo e-
8B\	.	.	.	.	.	.	.	.	.
!LO:SIC:v:t=custos B	!	!	!	!	!	!	!	!	!
8A\	.	.	.	.	.	.	.	.	.
!LO:LB:g=original	!	!	!	!	!	!	!	!	!
2B\	.	.	.	.	.	2d\	-lo	.	.
!	!	!LO:SIC:v:t=custos E	!	!	!	!	!	!	!
2.c\	-lo	1C	-lo e-	.	.	2r	.	0.g	-ter-
.	.	.	.	2e\	-lo e-	2c/	e-	.	.
8B\	.	.	.	.	.	.	.	.	.
8A\	.	.	.	.	.	.	.	.	.
!	!	!LO:LB:g=original	!	!	!	!	!	!	!
=33-	=33-	=33-	=33-	=33-	=33-	=33-	=33-	=33-	=33-
1G	.	2E\	-ter-	2e\	-ter-	2B/	-ter-	.	.
.	.	2.G\	-no al-	2.d\	-no al-	2.B/	-no al-	.	.
2r	.	.	.	.	.	.	.	.	.
.	.	4E\	-to	4c\	-to	4e\	-to	.	.
2.G/	al-	2G\	mo-	2B\	mo-	2d\	mo-	.	.
=34-	=34-	=34-	=34-	=34-	=34-	=34-	=34-	=34-	=34-
!	!	!	!	!	!	!LO:SIC:v:t=custos B	!	!	!
.	.	2C/	-to-	2e\	-to-	2c/	-to-	1g	-no
4E/	-to	.	.	.	.	.	.	.	.
!	!	!	!	!	!	!LO:LB:g=original	!	!	!
2G/	mo-	4GG/	-re	2d\	-re	4B/	-re	.	.
.	.	2G\	al-	.	.	2g\	al-	.	.
2C/	-to-	.	.	2r	.	.	.	2r	.
.	.	4c\	-to	.	.	4e\	-to	.	.
2G/	-re	2B\	mo-	2.g\	al-	2d\	mo-	2.dd\	al-
=35-	=35-	=35-	=35-	=35-	=35-	=35-	=35-	=35-	=35-
1r	.	2c\	-to-	.	.	2g\	-to-	.	.
.	.	.	.	4e\	-to	.	.	4cc\	-to
.	.	2G\	-re	2d\	mo-	2g\	-re	2b\	mo-
0G	La	0C	La	2e\	-to-	1r	.	2cc\	-to-
.	.	.	.	2e\	-re	.	.	2g/	-re
=36-	=36-	=36-	=36-	=36-	=36-	=36-	=36-	=36-	=36-
.	.	.	.	1c	LA	1e	La	2r	.
.	.	.	.	.	.	.	.	1ee	La
1.G#X	cui	1.E	cui	1.B	cui	1.e	cui	.	.
.	.	.	.	.	.	.	.	1b\	cui
=37-	=37-	=37-	=37-	=37-	=37-	=37-	=37-	=37-	=37-
!	!	!	!	!LO:SIC:v:t=custos c	!	!	!	!	!
2G#yX/	pic-	2E\	pie-	2B\	pie-	2e\	pie-	2b\	pie-
!	!	!	!	!LO:LB:g=original	!	!	!	!	!
1G#	-tà	1E	-tà	2B\	-tà	1e	-tà	1b	-tà
.	.	.	.	1E/	pre-	.	.	.	.
=38-	=38-	=38-	=38-	=38-	=38-	=38-	=38-	=38-	=38-
2A/	prec-	2AA/	pre-	.	.	2e\	pre-	2cc\	pre-
!	!	!	!	!	!	!	!	!LO:SIC:v:t=custos b	!
1A	-cor-	1AA	-cor-	1e	-cor-	1a	-cor-	1cc	-cor-
!	!	!	!	!	!	!	!	!LO:LB:g=original	!
1D/	-re à	2BB/	-re à	1d\	-re à	2g\	-re à	2b\	-re à
=39-	=39-	=39-	=39-	=39-	=39-	=39-	=39-	=39-	=39-
.	.	2D/	noſ-	.	.	2fny\	noſ-	1.a	noſ-
2E/	noſ-	2C#X/	-tr`of	1A	noſ-	2e\	-tre oſ-	.	.
!LO:SIC:v:t=custos G	!	!LO:SIC:v:t=custos D	!	!	!	!	!	!	!
2F#X/	-tr`of	1D	fe-	.	.	1d	-ſe-	.	.
!LO:LB:g=original	!	!	!	!	!	!	!	!	!
2.Gny/	fe-	.	.	2B-X\	-tre oſ-	.	.	2g/	-tre oſ-
!	!	!LO:LB:g=original	!	!	!	!	!	!	!
=40-	=40-	=40-	=40-	=40-	=40-	=40-	=40-	=40-	=40-
.	.	1D	-ſe	2A/	-ſe-	1d	-ſe	1a	-ſe-
8F#X/	.	.	.	.	.	.	.	.	.
8E/	.	.	.	.	.	.	.	.	.
2F#X/	.	.	.	2A/	-ſe	.	.	.	.
1G	-ſe	2GG/	Per	2d\	Per	2r	.	2b\	-ſe
.	.	1G\	quel	1Bny\	quel	2d\	per	2dd\	per
=41-	=41-	=41-	=41-	=41-	=41-	=41-	=41-	=41-	=41-
0r	.	.	.	.	.	2.g\	quel	2.b\	quel
.	.	2E\	nõ(n)	2G/	non	.	.	.	.
!	!	!	!	!	!	!LO:SIC:v:t=custos f#	!	!	!
.	.	.	.	.	.	4e\	nõ(n)	4g/	non
!	!	!	!	!	!	!LO:LB:g=original	!	!	!
.	.	2D/	fin-	2d\	fin-	2f#X\	fin-	2a\	fin-
.	.	2G\	-to a-	2d\	-to a-	2g\	-to a-	2b\	-to a-
=42-	=42-	=42-	=42-	=42-	=42-	=42-	=42-	=42-	=42-
00r	.	1F	-mor	2f\	-mor	1a	-mor	1cc	-mor
.	.	.	.	1c	ch`in	.	.	.	.
.	.	2E\	ch`in	.	.	2g\	ch`in	2cc\	ch`in
.	.	1F\	noi	1c\	noi	1fny\	noi	1a\	noi
=43-	=43-	=43-	=43-	=43-	=43-	=43-	=43-	=43-	=43-
.	.	.	.	.	.	.	.	.	.
.	.	2G\	t`a-	2B\	t`a-	1d	t`a-	2g/	t`a-
.	.	1E	-cce-	1G	-cce-	.	.	1g	-cce-
.	.	.	.	.	.	2c#X/	-cce-	.	.
=44-	=44-	=44-	=44-	=44-	=44-	=44-	=44-	=44-	=44-
2r	.	2D/	-ſe	1A	-ſe	1d	-ſe	1f#X	-ſe
2A/	DriZ-	2D/	DriZ-	.	.	.	.	.	.
4B\	-Z`à-	4G\	-Z`à-	1r	.	2d\	DriZ-	1r	.
4A/	-buõ(n)	4F\	-buõ(n)	.	.	.	.	.	.
4G/	cor-	4E\	cor-	.	.	2.g\	-Z`à-	.	.
4Fny/	-ſo	4D/	-ſo	.	.	.	.	.	.
=45-	=45-	=45-	=45-	=45-	=45-	=45-	=45-	=45-	=45-
4E/	il de-	4Cny/	il de-	1r	.	.	.	2r	.
4F/	-ſu-	4D/	-ſu-	.	.	4f\	-buõ(n)	.	.
2.G/	-ia-	4E\	-ia-	.	.	4e\	cor-	2g/	DriZ-
!	!	!LO:SIC:v:t=custos C	!	!	!	!	!	!	!
.	.	4BB/	-to	.	.	4d\	-ſo	.	.
!	!	!LO:LB:g=original	!	!	!	!	!	!	!
.	.	1C	co-	2r	.	4cny/	il de-	4e/	-Z`à-
!	!	!	!	!	!	!	!	!LO:SIC:v:t=custos g	!
4F/	-to	.	.	.	.	4d\	-ſu-	4fny/	-buon
!	!	!	!	!LO:SIC:v:t=custos G	!	!	!	!LO:LB:g=original	!
2E/	co-	.	.	2G/	DriZ-	4e\	-ia-	4g/	cor-
.	.	.	.	.	.	4f\	-to	4a\	-ſo
!	!	!	!	!LO:LB:g=original	!	!	!	!	!
=46-	=46-	=46-	=46-	=46-	=46-	=46-	=46-	=46-	=46-
2D/	-re	1GG	-re	4G/	-Z`à-	1g	co-	4b\	il de-
.	.	.	.	4A/	-buon	.	.	4cc\	-ſu-
2d\	DriZ-	.	.	4B\	cor-	.	.	4dd\	-ia-
.	.	.	.	4c\	-ſo	.	.	4cc\	-to
4G/	-Z`à-	2r	.	1.d	il de-	2g\	-re	2b\	co-
!LO:SIC:v:t=custos B	!	!	!	!	!	!	!	!	!
4A/	-buõ(n)	.	.	.	.	.	.	.	.
!LO:LB:g=original	!	!	!	!	!	!LO:SIC:v:t=custos f	!	!	!
4B\	cor-	2G\	DriZ-	.	.	2d\	il	2b\	-re
4c\	-ſo il	.	.	.	.	.	.	.	.
!	!	!	!	!	!	!LO:LB:g=original	!	!	!
=47-	=47-	=47-	=47-	=47-	=47-	=47-	=47-	=47-	=47-
2d\	de-	4D/	-Z`à-	.	.	2f\	il de-	2a\	il
.	.	4E\	-buõ(n)	.	.	.	.	.	.
2d\	-ſu-	4F\	cor-	2A/	-ſu-	2f\	-ſu-	4a\	de-
.	.	4G\	-ſo il	.	.	.	.	4b\	-ſu-
2c\	-ia-	4A\	de-	2A/	-ia-	2e\	-ia-	2cc\	-ia-
.	.	4AA/	-ſu-	.	.	.	.	.	.
2F/	-to	4D/	-ia-	1A\	-to	2d\	-to	2a\	-to
.	.	4C/	-to	.	.	.	.	.	.
=48-	=48-	=48-	=48-	=48-	=48-	=48-	=48-	=48-	=48-
0D	co-	0BB	co-	.	.	0d	co-	0b	co-
.	.	.	.	4G#X/	co-	.	.	.	.
.	.	.	.	4F#X/	.	.	.	.	.
.	.	.	.	1G#X	.	.	.	.	.
=49-	=49-	=49-	=49-	=49-	=49-	=49-	=49-	=49-	=49-
00E	-re.	00AA	-re.	00A	-re.	00c#X	-re.	00e	-re.
==	==	==	==	==	==	==	==	==	==
*-	*-	*-	*-	*-	*-	*-	*-	*-	*-
!!!system-decoration: [(s1,s2,s3,s4,s5)]
!!!ENC: Filip Voros
!!!END: 2022-06-28
!!!ENC: Natalia Wrzos
!!!END: 2022-07-14
